static/assets/template/assets/img/icons/essential/detailed/Shopping_Bag.svg

<svg height="126" viewBox="0 0 153 126" width="153" xmlns="http://www.w3.org/2000/svg"><g fill="none" fill-rule="evenodd" transform="translate(2 1)"><g stroke-linecap="round" stroke-linejoin="round" stroke-width="3" transform="translate(0 123)"><path d="m1.2.3h-1.1"/><path d="m22.4.3h-16.9"/><path d="m28.1.3h-1"/><path d="m114.7.3h-80.9"/><path d="m143.2.3h-24"/><path d="m149.1.3h-1.6"/></g><path d="m80.6 2.2-35-1.5h-7.5l-3.3 17.8 78.1.5-4.7-18.3z" fill="#9ec9ff" fill-rule="nonzero"/><path d="m110.9 11.1-2.7-10.4-27.6 1.5-35-1.5h-7.5l-3.3 17.8 78.1.5-.4-1.7" stroke-linecap="round" stroke-linejoin="round" stroke-width="3"/><path d="m126.8 123.3h-107.3c-2.9 0-5.2-2.4-5-5.3l4.7-92.3c.1-1.9 1.7-3.5 3.6-3.5h101.1c1.9 0 3.6 1.5 3.6 3.5l4.3 92.3c.2 2.9-2.1 5.3-5 5.3z" fill-rule="nonzero"/><path d="m131.8 118.2c.1 2.8-2.1 5.1-4.9 5.1h-104.7c-2.8 0-5.1-2.3-4.9-5.1l.6-12 4-77.1c.1-1.9 1.7-3.3 3.6-3.3h98.7c1.9 0 3.5 1.5 3.6 3.4l3.6 77z" fill-rule="nonzero"/><path d="m131.8 118.2c.1 2.8-2.1 5.1-4.9 5.1h-104.7c-2.8 0-5.1-2.3-4.9-5.1l.3-8.4c.2-3.5 3.1-6.3 6.6-6.3h107.1z" fill-rule="nonzero"/><path d="m18.5 39.2.7-13.4c.1-1.9 1.7-3.5 3.6-3.5h101.1c1.9 0 3.6 1.5 3.6 3.5l4.3 92.3c.1 2.9-2.2 5.3-5 5.3h-107.3c-2.9 0-5.2-2.4-5-5.3l2.2-43" stroke-linecap="round" stroke-linejoin="round" stroke-width="3"/><path d="m17 68.3.1-1" stroke-linecap="round" stroke-linejoin="round" stroke-width="3"/><path d="m108.2.7h-70.1l8.4 11-24.3 10.6h101.9l-24.8-10.6z" fill-rule="nonzero"/><path d="m106 3.6h-58.8c-1.3 0-2.2 1.5-1.4 2.6l3.4 5.4c.5.8.2 1.9-.7 2.2l-19.1 8.3 94.9.2-23.7-10.3z" fill-rule="nonzero"/><g stroke-linecap="round" stroke-linejoin="round" stroke-width="3"><path d="m108.2.7h-70.1l8.4 11-24.3 10.6h101.9l-24.8-10.6z"/><circle cx="45.3" cy="43.5" fill-rule="nonzero" r="6.3"/><circle cx="98.2" cy="43.5" fill-rule="nonzero" r="6.3"/></g><path d="m72.7 85.6c-11.7 0-20.3-3.3-25.7-9.9-6-7.2-7.6-18-4.9-32.1.3-1.6 1.9-2.7 3.6-2.4 1.6.3 2.7 1.9 2.4 3.6-2.4 12.2-1.2 21.3 3.6 27.1 4.2 5.1 11.3 7.7 21 7.7 8.6 0 15.3-2.7 19.4-7.9 4.8-6.1 6-15.3 3.4-26.7-.4-1.6.6-3.3 2.3-3.6 1.6-.4 3.3.6 3.6 2.3 3.1 13.3 1.5 24.3-4.6 31.9-5.3 6.5-13.6 10-24.1 10z" fill-rule="nonzero"/><path d="m77.4 85.4c-1.5.2-3.1.3-4.7.3-11.7 0-20.3-3.3-25.7-9.9-6-7.2-7.6-18-4.9-32.1.3-1.6 1.9-2.7 3.6-2.4 1.6.3 2.7 1.9 2.4 3.6-2.4 12.2-1.2 21.3 3.6 27.1.2.2.3.4.5.6" stroke-linecap="round" stroke-linejoin="round" stroke-width="3"/><path d="m62.9 78.5c2.9.7 6.1 1.1 9.8 1.1 8.6 0 15.3-2.7 19.4-7.9 4.8-6.1 6-15.3 3.4-26.7-.4-1.6.6-3.3 2.3-3.6 1.6-.4 3.3.6 3.6 2.3 3.1 13.3 1.5 24.3-4.6 31.9-2.9 3.7-6.7 6.4-11.3 8.1" stroke-linecap="round" stroke-linejoin="round" stroke-width="3"/><path d="m55 75c.7.5 1.4.9 2.1 1.3" stroke-linecap="round" stroke-linejoin="round" stroke-width="3"/></g></svg>

<?xml version="1.0" encoding="UTF-8"?>
<svg width="153px" height="126px" viewBox="0 0 153 126" version="1.1" xmlns="http://www.w3.org/2000/svg" xmlns:xlink="http://www.w3.org/1999/xlink">
    <!-- Generator: Sketch 51.2 (57519) - http://www.bohemiancoding.com/sketch -->
    <title>Shopping_Bag</title>
    <desc>Created with Sketch.</desc>
    <defs></defs>
    <g id="Page-1" stroke="none" stroke-width="1" fill="none" fill-rule="evenodd">
        <g id="Shopping_Bag" transform="translate(2.000000, 1.000000)">
            <g id="Group" transform="translate(0.000000, 123.000000)" class="stroke-primary-300" stroke-linecap="round" stroke-linejoin="round" stroke-width="3">
                <path d="M1.2,0.3 L0.1,0.3" id="Shape"></path>
                <path d="M22.4,0.3 L5.5,0.3" id="Shape"></path>
                <path d="M28.1,0.3 L27.1,0.3" id="Shape"></path>
                <path d="M114.7,0.3 L33.8,0.3" id="Shape"></path>
                <path d="M143.2,0.3 L119.2,0.3" id="Shape"></path>
                <path d="M149.1,0.3 L147.5,0.3" id="Shape"></path>
            </g>
            <polygon id="Shape" fill="#9EC9FF" fill-rule="nonzero" points="80.6 2.2 45.6 0.7 38.1 0.7 34.8 18.5 112.9 19 108.2 0.7"></polygon>
            <polyline id="Shape" class="stroke-primary" stroke-width="3" stroke-linecap="round" stroke-linejoin="round" points="110.9 11.1 108.2 0.7 80.6 2.2 45.6 0.7 38.1 0.7 34.8 18.5 112.9 19 112.5 17.3"></polyline>
            <path d="M126.8,123.3 L19.5,123.3 C16.6,123.3 14.3,120.9 14.5,118 L19.2,25.7 C19.3,23.8 20.9,22.2 22.8,22.2 L123.9,22.2 C125.8,22.2 127.5,23.7 127.5,25.7 L131.8,118 C132,120.9 129.7,123.3 126.8,123.3 Z" id="Shape" class="fill-neutral" fill-rule="nonzero"></path>
            <path d="M131.8,118.2 C131.9,121 129.7,123.3 126.9,123.3 L22.2,123.3 C19.4,123.3 17.1,121 17.3,118.2 L17.9,106.2 L21.9,29.1 C22,27.2 23.6,25.8 25.5,25.8 L124.2,25.8 C126.1,25.8 127.7,27.3 127.8,29.2 L131.4,106.2 L131.8,118.2 Z" id="Shape" class="fill-primary-100" fill-rule="nonzero"></path>
            <path d="M131.8,118.2 C131.9,121 129.7,123.3 126.9,123.3 L22.2,123.3 C19.4,123.3 17.1,121 17.3,118.2 L17.6,109.8 C17.8,106.3 20.7,103.5 24.2,103.5 L131.3,103.5 L131.8,118.2 Z" id="Shape" class="fill-primary-200" fill-rule="nonzero"></path>
            <path d="M18.5,39.2 L19.2,25.8 C19.3,23.9 20.9,22.3 22.8,22.3 L123.9,22.3 C125.8,22.3 127.5,23.8 127.5,25.8 L131.8,118.1 C131.9,121 129.6,123.4 126.8,123.4 L19.5,123.4 C16.6,123.4 14.3,121 14.5,118.1 L16.7,75.1" id="Shape" class="stroke-primary" stroke-width="3" stroke-linecap="round" stroke-linejoin="round"></path>
            <path d="M17,68.3 L17.1,67.3" id="Shape" class="stroke-primary" stroke-width="3" stroke-linecap="round" stroke-linejoin="round"></path>
            <polygon id="Shape" class="fill-neutral" fill-rule="nonzero" points="108.2 0.7 38.1 0.7 46.5 11.7 22.2 22.3 124.1 22.3 99.3 11.7"></polygon>
            <path d="M106,3.6 L47.2,3.6 C45.9,3.6 45,5.1 45.8,6.2 L49.2,11.6 C49.7,12.4 49.4,13.5 48.5,13.8 L29.4,22.1 L124.3,22.3 L100.6,12 L106,3.6 Z" id="Shape" class="fill-primary-500" fill-rule="nonzero"></path>
            <polygon id="Shape" class="stroke-primary" stroke-width="3" stroke-linecap="round" stroke-linejoin="round" points="108.2 0.7 38.1 0.7 46.5 11.7 22.2 22.3 124.1 22.3 99.3 11.7"></polygon>
            <circle id="Oval" stroke-width="3" class="stroke-primary fill-primary-500" fill-rule="nonzero" stroke-linecap="round" stroke-linejoin="round" cx="45.3" cy="43.5" r="6.3"></circle>
            <circle id="Oval" stroke-width="3" class="stroke-primary fill-primary-500" fill-rule="nonzero" stroke-linecap="round" stroke-linejoin="round" cx="98.2" cy="43.5" r="6.3"></circle>
            <path d="M72.7,85.6 C61,85.6 52.4,82.3 47,75.7 C41,68.5 39.4,57.7 42.1,43.6 C42.4,42 44,40.9 45.7,41.2 C47.3,41.5 48.4,43.1 48.1,44.8 C45.7,57 46.9,66.1 51.7,71.9 C55.9,77 63,79.6 72.7,79.6 C81.3,79.6 88,76.9 92.1,71.7 C96.9,65.6 98.1,56.4 95.5,45 C95.1,43.4 96.1,41.7 97.8,41.4 C99.4,41 101.1,42 101.4,43.7 C104.5,57 102.9,68 96.8,75.6 C91.5,82.1 83.2,85.6 72.7,85.6 Z" id="Shape" class="fill-neutral" fill-rule="nonzero"></path>
            <path d="M77.4,85.4 C75.9,85.6 74.3,85.7 72.7,85.7 C61,85.7 52.4,82.4 47,75.8 C41,68.6 39.4,57.8 42.1,43.7 C42.4,42.1 44,41 45.7,41.3 C47.3,41.6 48.4,43.2 48.1,44.9 C45.7,57.1 46.9,66.2 51.7,72 C51.9,72.2 52,72.4 52.2,72.6" id="Shape" class="stroke-primary" stroke-width="3" stroke-linecap="round" stroke-linejoin="round"></path>
            <path d="M62.9,78.5 C65.8,79.2 69,79.6 72.7,79.6 C81.3,79.6 88,76.9 92.1,71.7 C96.9,65.6 98.1,56.4 95.5,45 C95.1,43.4 96.1,41.7 97.8,41.4 C99.4,41 101.1,42 101.4,43.7 C104.5,57 102.9,68 96.8,75.6 C93.9,79.3 90.1,82 85.5,83.7" id="Shape" class="stroke-primary" stroke-width="3" stroke-linecap="round" stroke-linejoin="round"></path>
            <path d="M55,75 C55.7,75.5 56.4,75.9 57.1,76.3" id="Shape" class="stroke-primary" stroke-width="3" stroke-linecap="round" stroke-linejoin="round"></path>
        </g>
    </g>
</svg>
